src/assets/icons/home.svg

<svg width="30" height="24" viewBox="0 0 30 24"  fill="#9146FF" xmlns="http://www.w3.org/2000/svg">
<path fill-rule="evenodd" clip-rule="evenodd" d="M15.6919 3.04803C15.3051 2.67735 14.6949 2.67735 14.3081 3.04803L7.30809 9.75636C7.11128 9.94498 7 10.2058 7 10.4784V20.9999C7 21.5522 7.44772 21.9999 8 21.9999H10.5C11.0523 21.9999 11.5 21.5522 11.5 20.9999V16.8541C11.5 15.1972 12.8431 13.8541 14.5 13.8541H15.25C16.9069 13.8541 18.25 15.1972 18.25 16.8541V20.9999C18.25 21.5522 18.6977 21.9999 19.25 21.9999H22C22.5523 21.9999 23 21.5522 23 20.9999V10.4784C23 10.2058 22.8887 9.94498 22.6919 9.75636L15.6919 3.04803ZM12.9243 1.60406C14.0847 0.492008 15.9153 0.492007 17.0757 1.60405L24.0757 8.31239C24.6661 8.87822 25 9.66056 25 10.4784V20.9999C25 22.6567 23.6569 23.9999 22 23.9999H19.25C17.5931 23.9999 16.25 22.6567 16.25 20.9999V16.8541C16.25 16.3018 15.8023 15.8541 15.25 15.8541H14.5C13.9477 15.8541 13.5 16.3018 13.5 16.8541V20.9999C13.5 22.6567 12.1569 23.9999 10.5 23.9999H8C6.34315 23.9999 5 22.6567 5 20.9999V10.4784C5 9.66056 5.33385 8.87822 5.92428 8.31239L12.9243 1.60406Z" fill="current"/>
</svg>

<svg version="1.1" id="Camada_1" xmlns="http://www.w3.org/2000/svg" xmlns:xlink="http://www.w3.org/1999/xlink" x="0px" y="0px"
	 viewBox="0 0 30 24" style="enable-background:new 0 0 30 24;" xml:space="preserve">
<path class="icon-color" d="M15.7,3c-0.4-0.4-1-0.4-1.4,0l-7,6.7C7.1,9.9,7,10.2,7,10.5V21c0,0.6,0.4,1,1,1h2.5c0.6,0,1-0.4,1-1v-4.1
	c0-1.7,1.3-3,3-3h0.8c1.7,0,3,1.3,3,3V21c0,0.6,0.4,1,1,1H22c0.6,0,1-0.4,1-1V10.5c0-0.3-0.1-0.5-0.3-0.7L15.7,3z M12.9,1.6
	c1.2-1.1,3-1.1,4.2,0l7,6.7c0.6,0.6,0.9,1.3,0.9,2.2V21c0,1.7-1.3,3-3,3h-2.8c-1.7,0-3-1.3-3-3v-4.1c0-0.6-0.4-1-1-1h-0.8
	c-0.6,0-1,0.4-1,1V21c0,1.7-1.3,3-3,3H8c-1.7,0-3-1.3-3-3V10.5c0-0.8,0.3-1.6,0.9-2.2L12.9,1.6z"/>
</svg>
